X: 37376
T: Sleeping On A Doorstep
R: jig
M: 6/8
K: Gmajor
D|:GAG GBd|gfe dBG|cde dfg|aba fed|
GAG GBd|gfe dBG|cde dgB|dcA GGG:|
BcB Bef|gfe e^de|fcB fcB|ge^d eBG|
BcB Bef|gfe e^de|fgf Bgf|eBG EEE|
BcB Bef|gfe e^de|fcB fcB|ge^d eBG|
BcB Bef|gfe e^de|fgf Bgf|edc AFD||

